gama.ui.shared/icons_svg/dark/experiment/experiment.simulations.load.replace.svg

<svg height="25" viewBox="-418.774 -3215.705 25 25" width="25" xmlns="http://www.w3.org/2000/svg"><g fill="none"><path d="m-398.11414-3215.205h-16.32c-2.12076 0-3.84 1.719-3.84 3.84v16.32c0 2.1207 1.71924 3.84 3.84 3.84h16.32c2.12078 0 3.84-1.7193 3.84-3.84v-16.32c0-2.121-1.71922-3.84-3.84-3.84z" fill="#666"/><path d="m-398.11414-3215.205h-16.32c-2.12076 0-3.84 1.719-3.84 3.84v16.32c0 2.1207 1.71924 3.84 3.84 3.84h16.32c2.12078 0 3.84-1.7193 3.84-3.84v-16.32c0-2.121-1.71922-3.84-3.84-3.84z" stroke="#fff" stroke-linecap="round" stroke-linejoin="round" stroke-width=".25"/><path d="m-418.27414-3215.205h24v24h-24z"/><path d="m-410.00847-3195.205v-4.1524l2.08684 2.2508.63333-.6831-3.16667-3.4153-3.16666 3.4153.63333.6831 2.08683-2.2508v4.1524z" fill="#c0e0ff"/><path d="m-410.00847-3195.205v-4.1524l2.08684 2.2508.63333-.6831-3.16667-3.4153-3.16666 3.4153.63333.6831 2.08683-2.2508v4.1524z" stroke="#5a77a1" stroke-linecap="round" stroke-linejoin="round" stroke-width=".25"/><path d="m-406.1221-3205.323c-2.97423-.3585-4.59435-3.745-2.9269-6.2555 2.3855-3.5945 7.8262-1.5371 7.495 2.8395-.13036 1.7328-1.37094 2.6937-1.68004 4.2602-.72436 3.6681 3.86579 5.4302 5.91804 2.4233 1.3951-2.0448-.06836-4.9171-2.5243-5.0937-.31645-.0221-.87367.1419-.97144-.2692-.11039-.4636.40584-.492.72648-.4909 3.0552.0126 5.04646 3.3138 3.59876 6-2.0575 3.8195-7.924 2.2488-7.56443-2.2005.18819-2.3266 2.41703-3.5399 1.61593-6.122-.89155-2.8702-4.607-3.3369-6.08624-.7348-1.1691 2.0564.21344 4.6564 2.55897 4.8971-.16823-.3448-.51726-.6518-.69809-.9798-.22289-.4037.25652-.8474.64866-.4174.42686.4687.7738 1.0955 1.2143 1.5677.10936.1975.0568.4036-.06517.5823-.56667.3269-1.13123.9777-1.68633 1.2807-.3186.1733-.71914-.1116-.5488-.467.11773-.246.9693-.757.97773-.82z" fill="#c0e0ff"/></g></svg>

<?xml version="1.0" encoding="UTF-8" standalone="no"?>
<!DOCTYPE svg PUBLIC "-//W3C//DTD SVG 1.1//EN" "http://www.w3.org/Graphics/SVG/1.1/DTD/svg11.dtd">
<svg xmlns="http://www.w3.org/2000/svg" xmlns:xl="http://www.w3.org/1999/xlink" version="1.1" xmlns:dc="http://purl.org/dc/elements/1.1/" viewBox="-418.77414 -3215.705 25 25" width="25" height="25">
  <defs/>
  <g id="SOURCES" stroke-opacity="1" fill="none" stroke="none" fill-opacity="1" stroke-dasharray="none">
    <title>SOURCES</title>
    <g id="SOURCES_Dark">
      <title>Dark</title>
      <g id="Graphic_10904">
        <path d="M -398.11414 -3215.205 L -414.43414 -3215.205 C -416.5549 -3215.205 -418.27414 -3213.486 -418.27414 -3211.365 L -418.27414 -3195.045 C -418.27414 -3192.9243 -416.5549 -3191.205 -414.43414 -3191.205 L -398.11414 -3191.205 C -395.99336 -3191.205 -394.27414 -3192.9243 -394.27414 -3195.045 L -394.27414 -3211.365 C -394.27414 -3213.486 -395.99336 -3215.205 -398.11414 -3215.205 Z" fill="#666"/>
        <path d="M -398.11414 -3215.205 L -414.43414 -3215.205 C -416.5549 -3215.205 -418.27414 -3213.486 -418.27414 -3211.365 L -418.27414 -3195.045 C -418.27414 -3192.9243 -416.5549 -3191.205 -414.43414 -3191.205 L -398.11414 -3191.205 C -395.99336 -3191.205 -394.27414 -3192.9243 -394.27414 -3195.045 L -394.27414 -3211.365 C -394.27414 -3213.486 -395.99336 -3215.205 -398.11414 -3215.205 Z" stroke="white" stroke-linecap="round" stroke-linejoin="round" stroke-width=".25"/>
      </g>
      <g id="Graphic_10903">
        <rect x="-418.27414" y="-3215.205" width="24" height="24" stroke="gray" stroke-opacity="0" stroke-linecap="round" stroke-linejoin="round" stroke-width=".25"/>
      </g>
      <g id="Graphic_10901">
        <path d="M -410.00847 -3195.205 L -410.00847 -3199.3574 L -407.92163 -3197.1066 L -407.2883 -3197.7897 L -410.45497 -3201.205 L -413.62163 -3197.7897 L -412.9883 -3197.1066 L -410.90147 -3199.3574 L -410.90147 -3195.205 Z" fill="#c0e0ff"/>
        <path d="M -410.00847 -3195.205 L -410.00847 -3199.3574 L -407.92163 -3197.1066 L -407.2883 -3197.7897 L -410.45497 -3201.205 L -413.62163 -3197.7897 L -412.9883 -3197.1066 L -410.90147 -3199.3574 L -410.90147 -3195.205 Z" stroke="#5a77a1" stroke-linecap="round" stroke-linejoin="round" stroke-width=".25"/>
      </g>
      <g id="Graphic_10900">
        <path d="M -406.1221 -3205.323 C -409.09633 -3205.6815 -410.71645 -3209.068 -409.049 -3211.5785 C -406.6635 -3215.173 -401.2228 -3213.1156 -401.554 -3208.739 C -401.68436 -3207.0062 -402.92494 -3206.0453 -403.23404 -3204.4788 C -403.9584 -3200.8107 -399.36825 -3199.0486 -397.316 -3202.0555 C -395.9209 -3204.1003 -397.38436 -3206.9726 -399.8403 -3207.1492 C -400.15675 -3207.1713 -400.71397 -3207.0073 -400.81174 -3207.4184 C -400.92213 -3207.882 -400.4059 -3207.9104 -400.08526 -3207.9093 C -397.03006 -3207.8967 -395.0388 -3204.5955 -396.4865 -3201.9093 C -398.544 -3198.0898 -404.4105 -3199.6605 -404.05093 -3204.1098 C -403.86274 -3206.4364 -401.6339 -3207.6497 -402.435 -3210.2318 C -403.32655 -3213.102 -407.042 -3213.5687 -408.52124 -3210.9666 C -409.69034 -3208.9102 -408.3078 -3206.3102 -405.96227 -3206.0695 C -406.1305 -3206.4143 -406.47953 -3206.7213 -406.66036 -3207.0493 C -406.88325 -3207.453 -406.40384 -3207.8967 -406.0117 -3207.4667 C -405.58484 -3206.998 -405.2379 -3206.3712 -404.7974 -3205.899 C -404.68804 -3205.7015 -404.7406 -3205.4954 -404.86257 -3205.3167 C -405.42924 -3204.9898 -405.9938 -3204.339 -406.5489 -3204.036 C -406.8675 -3203.8627 -407.26804 -3204.1476 -407.0977 -3204.503 C -406.97997 -3204.749 -406.1284 -3205.26 -406.11997 -3205.323 Z" fill="#c0e0ff"/>
      </g>
    </g>
  </g>
</svg>
